X:76
T: SO VIEL STERN AM HIMMEL STEHEN
N: Z0076
O: Europa, Mitteleuropa, Deutschland
R: Sagen - Lied, Romanze, Tod
M: 3/4
L: 1/8
K: G
GA | B3BcA | edd2Bd | c3Adc | B2z2
GA | B3BcA | edd2Bd | c3Adc | B2z2
dB | BAA2ec | cBB2dB | BAA2ec | cBB2
GA | B3GcA | e2d2Bd | c2A2dc | B4

